scalable/status/aptdaemon-add.svg

<?xml version="1.0" encoding="UTF-8" standalone="no"?>
<svg
   xmlns:dc="http://purl.org/dc/elements/1.1/"
   xmlns:cc="http://creativecommons.org/ns#"
   xmlns:rdf="http://www.w3.org/1999/02/22-rdf-syntax-ns#"
   xmlns:svg="http://www.w3.org/2000/svg"
   xmlns="http://www.w3.org/2000/svg"
   xmlns:sodipodi="http://sodipodi.sourceforge.net/DTD/sodipodi-0.dtd"
   xmlns:inkscape="http://www.inkscape.org/namespaces/inkscape"
   fill="#000000"
   height="48"
   viewBox="0 0 48 48"
   width="48"
   version="1.1"
   id="svg4"
   sodipodi:docname="aptdaemon-add.svg"
   inkscape:version="0.92.3 (2405546, 2018-03-11)">
  <metadata
     id="metadata10">
    <rdf:RDF>
      <cc:Work
         rdf:about="">
        <dc:format>image/svg+xml</dc:format>
        <dc:type
           rdf:resource="http://purl.org/dc/dcmitype/StillImage" />
        <dc:title />
      </cc:Work>
    </rdf:RDF>
  </metadata>
  <defs
     id="defs8" />
  <sodipodi:namedview
     pagecolor="#ffffff"
     bordercolor="#666666"
     borderopacity="1"
     objecttolerance="10"
     gridtolerance="10"
     guidetolerance="10"
     inkscape:pageopacity="0"
     inkscape:pageshadow="2"
     inkscape:window-width="1366"
     inkscape:window-height="690"
     id="namedview6"
     showgrid="false"
     inkscape:zoom="4.9166667"
     inkscape:cx="24"
     inkscape:cy="24"
     inkscape:window-x="0"
     inkscape:window-y="28"
     inkscape:window-maximized="1"
     inkscape:current-layer="svg4"
     showguides="true"
     inkscape:guide-bbox="true" />
  <path
     style="opacity:1;fill:#cccccc;fill-opacity:0.95373667;fill-rule:nonzero;stroke:none;stroke-width:0.27330509;stroke-linecap:butt;stroke-linejoin:round;stroke-miterlimit:4;stroke-dasharray:none;stroke-dashoffset:0;stroke-opacity:1;paint-order:markers fill stroke"
     d="M 23.787109 2.4414062 A 21.771761 21.864407 0 0 0 2.015625 24.304688 A 21.771761 21.864407 0 0 0 23.787109 46.169922 A 21.771761 21.864407 0 0 0 45.558594 24.304688 A 21.771761 21.864407 0 0 0 23.787109 2.4414062 z M 19.728516 11.796875 L 27.457031 11.796875 L 27.457031 20.542969 L 36.203125 20.542969 L 36.203125 28.271484 L 27.457031 28.271484 L 27.457031 37.017578 L 19.728516 37.017578 L 19.728516 28.271484 L 10.982422 28.271484 L 10.982422 20.542969 L 19.728516 20.542969 L 19.728516 11.796875 z "
     id="path812" />
  <path
     id="path9"
     d="M 23.787109 2.4414062 A 21.771761 21.864407 0 0 0 2.015625 24.304688 A 21.771761 21.864407 0 0 0 23.787109 46.169922 A 21.771761 21.864407 0 0 0 45.558594 24.304688 A 21.771761 21.864407 0 0 0 23.787109 2.4414062 z M 19.728516 11.796875 L 27.457031 11.796875 L 27.457031 20.542969 L 36.203125 20.542969 L 36.203125 28.271484 L 27.457031 28.271484 L 27.457031 37.017578 L 19.728516 37.017578 L 19.728516 28.271484 L 10.982422 28.271484 L 10.982422 20.542969 L 19.728516 20.542969 L 19.728516 11.796875 z "
     style="opacity:1;fill:#cccccc;fill-opacity:0.95373667;fill-rule:nonzero;stroke:none;stroke-width:0.27330509;stroke-linecap:butt;stroke-linejoin:round;stroke-miterlimit:4;stroke-dasharray:none;stroke-dashoffset:0;stroke-opacity:1;paint-order:markers fill stroke" />
</svg>

<svg xmlns="http://www.w3.org/2000/svg" xmlns:xlink="http://www.w3.org/1999/xlink" height="48" width="48"><defs><linearGradient id="a"><stop offset="0"/><stop offset="1" stop-opacity="0"/></linearGradient><linearGradient xlink:href="#a" id="b" gradientUnits="userSpaceOnUse" x1="9.97" y1="29.87" x2="47.72" y2="29.87"/></defs><path d="M23.79 2.44A21.77 21.86 0 0 0 2.02 24.3a21.77 21.86 0 0 0 21.77 21.87A21.77 21.86 0 0 0 45.56 24.3 21.77 21.86 0 0 0 23.79 2.44zm-4.06 9.36h7.73v8.74h8.74v7.73h-8.74v8.75h-7.73v-8.75h-8.75v-7.73h8.75V11.8z" fill="#ccc" fill-opacity=".95" paint-order="markers fill stroke"/><path d="M23.79 2.44A21.77 21.86 0 0 0 2.02 24.3a21.77 21.86 0 0 0 21.77 21.87A21.77 21.86 0 0 0 45.56 24.3 21.77 21.86 0 0 0 23.79 2.44z" fill="#f95" fill-opacity=".98" paint-order="markers fill stroke"/><path d="M28.38 45.67a21.77 21.86 0 0 0 1.84-.48 21.77 21.86 0 0 0 2.05-.75 21.77 21.86 0 0 0 1.95-.95 21.77 21.86 0 0 0 1.86-1.14 21.77 21.86 0 0 0 1.73-1.32 21.77 21.86 0 0 0 1.6-1.5 21.77 21.86 0 0 0 1.43-1.63 21.77 21.86 0 0 0 1.27-1.78 21.77 21.86 0 0 0 1.08-1.9 21.77 21.86 0 0 0 .89-2 21.77 21.86 0 0 0 .69-2.07 21.77 21.86 0 0 0 .19-.85l-17.5-17.5-1.6 2.03-3.53 12.2-11.35 2.24z" opacity=".5" fill="url(#b)"/><path d="M19.73 11.8h7.73v8.74h8.74v7.73h-8.74v8.75h-7.73v-8.75h-8.75v-7.73h8.75z" fill="#fff" fill-opacity=".95" paint-order="markers fill stroke"/></svg>
